X:1
T:Sugar Land, 76.76
T:Sugar Land, 76.76
T:Richard Taylor Wiley, 1888
T:Public Domain Courtesy of the Cyber Hymnal™
C:Richard Taylor Wiley, 1888
Z:Public Domain
Z:Courtesy of the Cyber Hymnal™
%%score ( 1 2 ) ( 3 4 )
L:1/8
Q:1/4=103
M:4/4
K:G
V:1 treble 
V:2 treble 
V:3 bass 
V:4 bass 
V:1
 [GB]2 [GB]2 ([Bd]>[GB]) (A>B) | G2 [FA]2 B4 | (Ae) (dA) [DG]2 (B>A) | [DG]4 [DF]4 | %4
 [GB]2 [GB]2 ([Bd]>[GB]) (A>B) | G2 [GA]2 [FB]4 | (Ae) ([Gc][EA]) [DG]2 (A>B) | [FA]4 [DG]4 |] %8
V:2
 x6 F2 | G2 (G2 =F2) x2 | E2 E2 x D2 x | x8 | x6 F2 | G2 x6 | G2 x3 F2 x | x8 |] %8
V:3
 [G,D]2 [G,D]2 [D,D]2 (C>D) | [E,B,]2 [D,D]2 [G,D]4 | [C,C]2 [C,C]2 [D,B,]2 (D>C) | %3
 [E,B,]4 [D,A,]4 | [G,,D]2 [G,D]2 [D,D]2 (C>B,) | [E,B,]2 [C,E]2 [B,,^D]4 | %6
 [C,E]2 (EC) [D,B,]2 (C>D) | [D,C]4 [G,,B,]4 |] %8
V:4
 x6 D,2 | x8 | x6 D,2 | x8 | x6 ^D,2 | x8 | x2 C,2 x D,2 x | x8 |] %8

